SVG_Azure_All/Resource Lock.svg

<?xml version="1.0" encoding="UTF-8" standalone="no"?>
<!-- Generated by Microsoft Visio, SVG Export Resource Lock.svg Page-1 -->

<svg
   xmlns:dc="http://purl.org/dc/elements/1.1/"
   xmlns:cc="http://creativecommons.org/ns#"
   xmlns:rdf="http://www.w3.org/1999/02/22-rdf-syntax-ns#"
   xmlns:svg="http://www.w3.org/2000/svg"
   xmlns="http://www.w3.org/2000/svg"
   xmlns:sodipodi="http://sodipodi.sourceforge.net/DTD/sodipodi-0.dtd"
   xmlns:inkscape="http://www.inkscape.org/namespaces/inkscape"
   width="0.59055388in"
   height="0.78738171in"
   viewBox="0 0 42.520001 56.691395"
   xml:space="preserve"
   class="st2"
   version="1.1"
   id="svg19"
   sodipodi:docname="Resource Lock.svg"
   style="font-size:12px;overflow:visible;color-interpolation-filters:sRGB;fill:none;fill-rule:evenodd;stroke-linecap:square;stroke-miterlimit:3"
   inkscape:version="0.92.5 (2060ec1f9f, 2020-04-08)"><metadata
   id="metadata25"><rdf:RDF><cc:Work
       rdf:about=""><dc:format>image/svg+xml</dc:format><dc:type
         rdf:resource="http://purl.org/dc/dcmitype/StillImage" /></cc:Work></rdf:RDF></metadata><defs
   id="defs23" /><sodipodi:namedview
   pagecolor="#ffffff"
   bordercolor="#666666"
   borderopacity="1"
   objecttolerance="10"
   gridtolerance="10"
   guidetolerance="10"
   inkscape:pageopacity="0"
   inkscape:pageshadow="2"
   inkscape:window-width="640"
   inkscape:window-height="480"
   id="namedview21"
   showgrid="false"
   inkscape:zoom="1.1368436"
   inkscape:cx="28.346586"
   inkscape:cy="37.790555"
   inkscape:window-x="0"
   inkscape:window-y="0"
   inkscape:window-maximized="0"
   inkscape:current-layer="svg19" />
	<style
   type="text/css"
   id="style2">
	<![CDATA[
		.st1 {fill:#000000;stroke:none;stroke-linecap:butt;stroke-width:49.5}
		.st2 {fill:none;fill-rule:evenodd;font-size:12px;overflow:visible;stroke-linecap:square;stroke-miterlimit:3}
	]]>
	</style>

	<g
   id="g17"
   transform="translate(-49.5,-49.498698)">
		<title
   id="title4">Page-1</title>
		<g
   id="group1900-1"
   transform="translate(49.5,-49.5)">
			<title
   id="title6">Resource Lock</title>
			<g
   id="group1901-2">
				<title
   id="title8">Sheet.1901</title>
				<g
   id="shape1902-3">
					<title
   id="title10">Sheet.1902</title>
					<path
   d="m 42.52,123.8 v 31.89 H 0 V 123.8 h 7.09 v -10.27 a 14.5276,14.5276 0 0 1 1.06,-5.67 20.1969,20.1969 0 0 1 2.83,-4.61 13.4646,13.4646 0 0 1 4.61,-3.19 14.5276,14.5276 0 0 1 5.67,-1.06 14.5276,14.5276 0 0 1 5.67,1.06 13.4646,13.4646 0 0 1 4.61,3.19 20.1969,20.1969 0 0 1 2.83,4.61 14.5276,14.5276 0 0 1 1.06,5.67 v 10.27 z m -3.54,3.55 H 3.54 v 24.8 H 38.98 Z M 10.63,123.8 h 21.26 v -10.27 a 17.7165,17.7165 -180 0 0 -0.71,-4.25 12.7559,12.7559 -180 0 0 -2.48,-3.55 7.79528,7.79528 -180 0 0 -3.19,-2.48 l -4.25,-0.71 -4.25,0.71 a 7.79528,7.79528 -180 0 0 -3.19,2.48 12.7559,12.7559 -180 0 0 -2.48,3.55 17.7165,17.7165 -180 0 0 -0.71,4.25 z"
   class="st1"
   id="path12"
   inkscape:connector-curvature="0"
   style="fill:#000000;stroke:none;stroke-width:49.5;stroke-linecap:butt" />
				</g>
			</g>
		</g>
	</g>
</svg>

<?xml version="1.0" encoding="UTF-8" standalone="no"?>
<!DOCTYPE svg PUBLIC "-//W3C//DTD SVG 1.1//EN" "http://www.w3.org/Graphics/SVG/1.1/DTD/svg11.dtd">
<!-- Generated by Microsoft Visio, SVG Export Resource Lock.svg Page-1 -->
<svg xmlns="http://www.w3.org/2000/svg" xmlns:xlink="http://www.w3.org/1999/xlink" xmlns:ev="http://www.w3.org/2001/xml-events"
		width="1.96555in" height="2.16242in" viewBox="0 0 141.52 155.694" xml:space="preserve" color-interpolation-filters="sRGB"
		class="st2">
	<style type="text/css">
	<![CDATA[
		.st1 {fill:#000000;stroke:none;stroke-linecap:butt;stroke-width:49.5}
		.st2 {fill:none;fill-rule:evenodd;font-size:12px;overflow:visible;stroke-linecap:square;stroke-miterlimit:3}
	]]>
	</style>

	<g>
		<title>Page-1</title>
		<g id="group1885-1" transform="translate(49.5,-49.5)">
			<title>Resource Lock</title>
			<g id="group1886-2">
				<title>Sheet.1886</title>
				<g id="shape1887-3">
					<title>Sheet.1887</title>
					<path d="M42.52 123.8 L42.52 155.69 L0 155.69 L0 123.8 L7.09 123.8 L7.09 113.53 A14.5276 14.5276 0 0 1 8.15 107.86
								 A20.1969 20.1969 0 0 1 10.98 103.25 A13.4646 13.4646 0 0 1 15.59 100.06 A14.5276 14.5276 0 0 1 21.26
								 99 A14.5276 14.5276 0 0 1 26.93 100.06 A13.4646 13.4646 0 0 1 31.54 103.25 A20.1969 20.1969 0 0
								 1 34.37 107.86 A14.5276 14.5276 0 0 1 35.43 113.53 L35.43 123.8 L42.52 123.8 ZM38.98 127.35 L3.54
								 127.35 L3.54 152.15 L38.98 152.15 L38.98 127.35 ZM10.63 123.8 L31.89 123.8 L31.89 113.53 A17.7165
								 17.7165 -180 0 0 31.18 109.28 A12.7559 12.7559 -180 0 0 28.7 105.73 A7.79528 7.79528 -180 0 0 25.51
								 103.25 L21.26 102.54 L17.01 103.25 A7.79528 7.79528 -180 0 0 13.82 105.73 A12.7559 12.7559 -180
								 0 0 11.34 109.28 A17.7165 17.7165 -180 0 0 10.63 113.53 L10.63 123.8 Z" class="st1"/>
				</g>
			</g>
		</g>
	</g>
</svg>
